fs/call_prohibited_24_regular.svg

<svg viewBox="0 0 24 24" fill="none" xmlns="http://www.w3.org/2000/svg" height="1em" width="1em">
  <path d="M12.0141 2.49609C15.957 2.49609 18.8895 3.33787 20.7896 5.06532C21.7444 5.9333 22.1822 7.22707 21.9607 8.48821L21.9176 8.69802L21.7257 9.51464C21.4097 10.8593 20.1452 11.7609 18.771 11.6214L17.0164 11.4434C15.8451 11.3245 14.8793 10.4732 14.6145 9.32605L14.2253 7.6401C14.2102 7.5747 14.1694 7.51811 14.1121 7.48308C13.7907 7.28655 13.0784 7.16362 12.0141 7.16362C10.5492 7.16362 9.86128 7.39293 9.82228 7.55654L9.41365 9.32651C9.14888 10.4734 8.18359 11.3246 7.01261 11.4438L5.26692 11.6215C3.89633 11.761 2.63402 10.8648 2.31377 9.52485L2.11846 8.70767C1.80012 7.37577 2.23311 5.97625 3.24798 5.05683C5.14843 3.33511 8.07776 2.49609 12.0141 2.49609ZM12.0141 3.99609C8.41666 3.99609 5.83759 4.73479 4.25508 6.16847C3.64616 6.72013 3.38636 7.55983 3.57737 8.35897L3.77268 9.17617C3.91825 9.78522 4.49203 10.1926 5.11502 10.1292L6.86072 9.95148C7.39298 9.8973 7.83175 9.51039 7.9521 8.98909L8.36193 7.214C8.6312 6.08378 9.89168 5.66362 12.0141 5.66362C13.3321 5.66362 14.2793 5.8271 14.8947 6.20338C15.2956 6.44858 15.5811 6.84478 15.6868 7.30271L16.0761 8.98862C16.1964 9.51006 16.6354 9.89702 17.1678 9.95105L18.9224 10.1291C19.5471 10.1925 20.1218 9.78265 20.2655 9.17145L20.4574 8.35484L20.4907 8.18389C20.6056 7.44156 20.3421 6.68567 19.7806 6.17521C18.1987 4.7371 15.6173 3.99609 12.0141 3.99609ZM12 22.0002C8.96243 22.0002 6.5 19.5378 6.5 16.5002C6.5 13.4627 8.96243 11.0002 12 11.0002C15.0376 11.0002 17.5 13.4627 17.5 16.5002C17.5 19.5378 15.0376 22.0002 12 22.0002ZM12 20.5002C14.2091 20.5002 16 18.7094 16 16.5002C16 15.6667 15.7451 14.8928 15.3089 14.2521L9.75185 19.8092C10.3925 20.2453 11.1665 20.5002 12 20.5002ZM8.69117 18.7485L14.2483 13.1914C13.6076 12.7552 12.8336 12.5002 12 12.5002C9.79086 12.5002 8 14.2911 8 16.5002C8 17.3338 8.25497 18.1078 8.69117 18.7485Z" fill="#212121"/>
</svg>

<svg viewBox="0 0 24 24" fill="none" xmlns="http://www.w3.org/2000/svg" height="1em" width="1em">
  <path d="M12.014 2.496c3.943 0 6.876.842 8.776 2.57a3.75 3.75 0 0 1 1.17 3.422l-.042.21-.192.817a2.75 2.75 0 0 1-2.955 2.106l-1.755-.178a2.75 2.75 0 0 1-2.401-2.117l-.39-1.686a.25.25 0 0 0-.113-.157c-.321-.196-1.034-.32-2.098-.32-1.465 0-2.153.23-2.192.394l-.408 1.77a2.75 2.75 0 0 1-2.401 2.117l-1.746.177a2.75 2.75 0 0 1-2.953-2.096l-.196-.817a3.75 3.75 0 0 1 1.13-3.651c1.9-1.722 4.83-2.56 8.766-2.56Zm0 1.5c-3.597 0-6.176.739-7.759 2.172a2.25 2.25 0 0 0-.678 2.191l.196.817a1.25 1.25 0 0 0 1.342.953l1.746-.178a1.25 1.25 0 0 0 1.091-.962l.41-1.775c.27-1.13 1.53-1.55 3.652-1.55 1.318 0 2.265.163 2.88.54.402.245.687.64.793 1.099l.39 1.686c.12.521.558.908 1.09.962l1.755.178a1.25 1.25 0 0 0 1.343-.958l.192-.816.034-.171a2.25 2.25 0 0 0-.71-2.009c-1.582-1.438-4.164-2.179-7.767-2.179ZM12 22a5.5 5.5 0 1 1 0-11 5.5 5.5 0 0 1 0 11Zm0-1.5a4 4 0 0 0 3.309-6.248L9.752 19.81a3.98 3.98 0 0 0 2.248.691Zm-3.309-1.752 5.557-5.557a4 4 0 0 0-5.557 5.557Z" fill="#212121"/>
</svg>
